X: 92
M:C|
L:1/8
K:D
uf|\
d2fd A<A fd | egfe dBBe | d2 fd Agfe | dBAF D/D/D (Dd) |
d2fd A<A fd | egfe dBBe | d2 fd ecdB | AdAF D/D/D D   |]
uB|\


